X:1
T:Cleansing Wave
T:Phoebe Palmer Knapp (1839-1908)
T:Cleansing Wave
T:Public Domain
T:Public Domain
C:Phoebe Palmer Knapp (1839-1908)
Z:Public Domain
%%score ( 1 2 ) ( 3 4 )
L:1/8
M:3/4
K:Eb
V:1 treble 
V:2 treble 
V:3 bass 
V:4 bass 
V:1
 [B,E]2 | [EG][GB] [EG]2 [B,E]2 | [A,C][CE] [CE]2 [Ec]2 | [Ec][EB] [EB]2 [EG]2 | [DF]4 [B,E]2 | %5
w: 1.~Oh,|now I see the|cleans- ing wave! The|fount- ain deep and|wide; Je-|
w: 2.~I|rise to walk in|Heav’n’s own light, A-|bove the world and|sin, With|
w: 3.~A-|maz- ing grace! ’tis|heav’n be- low To|feel the blood ap-|plied, And|
 [EG][GB] [EG]2 [B,E]2 | [A,C][CE] [CE]2 [Ec]2 | [Ec][EB] [EG]2 [DF]2 | E4 ||"^Refrain" [EB]2 | %10
w: sus, my Lord, might-|y to save, Points|to His wound- ed|side.||
w: heart made pure and|gar- ments white, And|Christ en- throned with-|in.||
w: Je- sus, on- ly|Je- sus know, My|Je- sus cru- ci-|fied.||
 [Ec][Ec] [Ec]2 [Ae]2 | [Ae][GB] [GB]2 [EG]2 | [DF][EG] [FA]2 [Ac]2 | [Ac][GB] [GB]2 [EB]2 | %14
w: ||||
w: ||||
w: ||||
 [Ec][Ec] [Ec]2 [Ae]2 | [Ge][GB] [GB]2 [EG]2 | [DF][EG] [FA]2 [B,D]2 | [B,F][B,E] [B,E]2 |] %18
w: ||||
w: ||||
w: ||||
V:2
 x2 | x6 | x6 | x6 | x6 | x6 | x6 | x6 | E4 || x2 | x6 | x6 | x6 | x6 | x6 | x6 | x6 | x4 |] %18
V:3
 [E,G,]2 | [E,B,][E,B,] [E,B,]2 [E,G,]2 | [A,,A,][A,,A,] [A,,A,]2 [A,,A,]2 | %3
w: ~|~ ~ ~ ~|~ ~ ~ ~|
 [E,A,][E,G,] [E,G,]2 [E,B,]2 | [B,,B,]4 [E,G,]2 | [E,B,][E,B,] [E,B,]2 [E,G,]2 | %6
w: ~ ~ ~ ~|~ ~|~ ~ ~ ~|
 [A,,A,][A,,A,] [A,,A,]2 [A,,A,]2 | [E,A,][E,G,] [E,B,]2 [B,,A,]2 | [E,G,]4 || [E,G,]2 | %10
w: ~ ~ ~ ~|~ ~ ~ ~|~|The|
 A,A, A,2 [A,,A,C]2 | [E,B,][E,E] [E,E]2 [E,B,]2 | [B,,B,][B,,B,] [B,,B,]2 [B,,D]2 | %13
w: cleans- ing stream I|see! I plunge, and|oh, it cleans- eth|
 [E,E][E,E] [E,E]2 [E,G,]2 | A,A, A,2 [A,,A,C]2 | [E,B,][E,E] [E,E]2 [E,B,]2 | %16
w: me! Oh, praise the|Lord! It cleans- eth|eth me— yes, cleans-|
 [B,,B,][B,,B,] [B,,B,]2 [B,,A,]2 | [E,A,][E,G,] [E,G,]2 |] %18
w: eth me. * *||
V:4
 x2 | x6 | x6 | x6 | x6 | x6 | x6 | x6 | x4 || x2 | A,A, x4 | x6 | x6 | x6 | A,A, A,2 x2 | x6 | %16
w: ||||||||||see! I||||me! It cleans-||
 x6 | x4 |] %18
w: ||

